X: 1
T: The Boys Of Malin
R: reel
M: 4/4
L: 1/8
K: Amaj
|:ABcd eAce|fedf edcB|ABcd eAce|1 feBc d2cB:|2 feBc defg|||aAAA cAce|abag fefg|aAAA cAce|dcBc defg|aAAA cAce|abag f2g2|affe fedc|dcBc d2cB||:Aece Aece|Aece d2cB|Aece Aece|feBc d2cB:|


Tune 11	Setting 12374

